X:1
T:Title
L:1/8
M:6/8
K:Ab
V:1 treble nm="Grand Piano"
V:1
 z2[Q:1/4=130] E E2 F | E3 c3 | B3- B2 A | F6- | F2 A G2 F | E3 D3 | C6- | C2 E E2 F | E3 A3 | %9
 c3- c2 B | d6- | d2 B A2 G | F3 G3 | A6- | A2 A A2 G | F3 C3 | A3- A2 B | G6- | G2 c c2 d | %19
 c2 B A2 G | F6 | z2 c c2 c | d6- | d2 d c2 _c | c6- | c2 c c2 _c | B6- | B2 B A2 G | F6 | %29
 E2 E E2 E | A3- A2 A | B3- B>A-A/<B/ | c6- | c2 c B2 c | d3 B3 | A3- A2 G | A6- | A2 z z3 |] %38

